movie-settings-outline.svg

<svg  viewBox="0 0 24 24" fill="currentColor"><path  d="M18 4L20 8H17L15 4H13L15 8H12L10 4H8L10 8H7L5 4H4C2.9 4 2 4.89 2 6V18C2 19.11 2.9 20 4 20H20C21.11 20 22 19.11 22 18V4H18M20 18H4V6.47L5.76 10H20V18M11 22H13V24H11V22M7 22H9V24H7V22M15 22H17V24H15V22Z"/></svg>

<svg fill="currentColor" viewBox="0 0 24 24"><path d="m18 4 2 4h-3l-2-4h-2l2 4h-3l-2-4H8l2 4H7L5 4H4a2 2 0 0 0-2 2v12a2 2 0 0 0 2 2h16c1.11 0 2-.89 2-2V4zm2 14H4V6.47L5.76 10H20zm-9 4h2v2h-2zm-4 0h2v2H7zm8 0h2v2h-2z"/></svg>
